packages/icons/src/SVG/add.svg

<!-- Generated by IcoMoon.io -->
<svg version="1.1" xmlns="http://www.w3.org/2000/svg" width="12" height="12" viewBox="0 0 12 12">
<title>add</title>
<path d="M7 0h-2v5h-5v2h5v5h2v-5h5v-2h-5v-5z"></path>
</svg>

<svg width="12" height="12" viewBox="0 0 12 12" >
<path d="M7 0H5V5H0V7H5V12H7V7H12V5H7V0Z" />
</svg>
